src/bash.svg

<?xml version="1.0" encoding="UTF-8" standalone="no"?>
<svg
   xmlns:dc="http://purl.org/dc/elements/1.1/"
   xmlns:cc="http://creativecommons.org/ns#"
   xmlns:rdf="http://www.w3.org/1999/02/22-rdf-syntax-ns#"
   xmlns:svg="http://www.w3.org/2000/svg"
   xmlns="http://www.w3.org/2000/svg"
   xmlns:sodipodi="http://sodipodi.sourceforge.net/DTD/sodipodi-0.dtd"
   xmlns:inkscape="http://www.inkscape.org/namespaces/inkscape"
   height="16"
   width="16"
   id="svg2"
   version="1.1"
   inkscape:version="0.91 r13725"
   sodipodi:docname="bash.svg">
  <metadata
     id="metadata10">
    <rdf:RDF>
      <cc:Work
         rdf:about="">
        <dc:format>image/svg+xml</dc:format>
        <dc:type
           rdf:resource="http://purl.org/dc/dcmitype/StillImage" />
        <dc:title></dc:title>
      </cc:Work>
    </rdf:RDF>
  </metadata>
  <defs
     id="defs8" />
  <sodipodi:namedview
     pagecolor="#ffffff"
     bordercolor="#666666"
     borderopacity="1"
     objecttolerance="10"
     gridtolerance="10"
     guidetolerance="10"
     inkscape:pageopacity="0"
     inkscape:pageshadow="2"
     inkscape:window-width="1366"
     inkscape:window-height="705"
     id="namedview6"
     showgrid="false"
     inkscape:zoom="33.625"
     inkscape:cx="8"
     inkscape:cy="8"
     inkscape:window-x="-8"
     inkscape:window-y="-8"
     inkscape:window-maximized="1"
     inkscape:current-layer="svg2" />
  <path
     d="M 14,0 2,0 C 1.289447,0 0,1.28945 0,2 l 0,12 c 0,0.71055 1.289447,2 2,2 l 12,0 c 0.710553,0 2,-1.28945 2,-2 L 16,2 C 16,1.28945 14.710553,0 14,0 Z M 1.567839,9.28643 4.140704,6.71357 1.567839,4.1407 2.854271,2.85427 6.713568,6.71357 2.854271,10.57286 Z m 10.291457,1.28643 -5.145728,0 0,-1.28643 5.145728,0 z"
     id="path4"
     inkscape:connector-curvature="0"
     sodipodi:nodetypes="ssssssssscccccccccccc" />
</svg>

<svg xmlns="http://www.w3.org/2000/svg" viewBox="0 0 16 16">
 <path d="m14 2e-7h-12c-0.71055 0-2 1.2894-2 2v12c0 0.71055 1.2894 2 2 2h12c0.71055 0 2-1.2894 2-2v-12c0-0.71055-1.2894-2-2-2zm-12.432 9.2864 2.5729-2.5728l-2.5729-2.5729 1.2864-1.2864 3.8593 3.8593-3.8593 3.8593zm10.291 1.2864h-5.1457v-1.2864h5.1457z"/>
</svg>
